X:715
%%etbk:tnset id:450,pos:1,rep:3x,ant:
%%etbk:wsite https://thesession.org/tunes/737
%%etbk:video src:ytube,cde:_R8zMsgIPA8,desc:second tune
%%etbk:pldat 2016-08-05T16:42,2016-03-20T10:12,2016-03-17T19:07,2016-01-04T18:52,2015-12-31T14:39,2015-12-27T14:31,2015-12-23T16:53,2015-12-23T16:42,2015-12-21T19:01,2015-12-14T19:03,2015-10-14T18:05,2015-10-13T17:43,2015-08-30T16:24,2015-08-19T17:05,2015-08-16T14:04,2015-08-15T16:46,2015-08-14T16:42,2015-08-13T18:17,2015-08-10T19:20,2015-07-16T16:36,2015-07-11T17:02,2015-07-08T09:41,2015-06-01T17:11,2015-05-19T16:21,2015-05-10T11:05,2015-05-05T16:54,2015-04-30T19:48
T: The Spike Island Lasses
Z: Piano Box Version by Martin Fleischmann
H: Created 2015-04-29 /  Last Modified 2015-08-09
R: reel
M: 4/4
L: 1/8
K: Dmaj
K: Dmix
|:"D-Drone"!2!c!1!A!2!G!4!B !3!A!1!DDE|!3!FDAD !3!F!1!GAB|1!4!cAGB !2!AGFG |!2!A!5!d!3!de !5!fded:|2!4!cA!3!BG !2!AGFG|Addc d3 e||
K:Dmaj
"D"!3!f2df efge|!1!dfed !3!cA (3AAA|!5!fedf !4!e!3!d!2!c!3!d|Addc d2!2!c!3!d|
"A"!2!eaag efge|"D"!3!fd!5!ec !4!dc!1!A!2!G|!1!A!3!ddc dedc|Ad!3!d!4!e !3!fde!1!d||
K:Dmix
"D"!4!cAGB A3c|"G"!3!B3A GBdB|!4!cAGB "D"AGFG|!2!A!3!d!3!d!4!e !5!fded|
"D"!4!c!2!A!1!G!3!B ~A3 c|"G"BGGF ~G3 B|cABG "D"AGFG|Addc !3!d3!4!e||
K:Dmaj
"D"!2!ffad ffad|ffaf "A"!3!g!1!eee|"D"!3!fdAd faad|!3!fage d!2!cA!2!c|
"D"defg ~a3 b|agfa "A"!3!~g3!1!e|"D"!5!ffdf ed!2!cA|!3!dcde fded||
"var first bars"cAGB ADDD|FDAD ADDD|


